icons/bj.svg

<?xml version="1.0" ?>
<svg xmlns="http://www.w3.org/2000/svg" xmlns:ev="http://www.w3.org/2001/xml-events" xmlns:xlink="http://www.w3.org/1999/xlink" baseProfile="full" height="600px" version="1.1" viewBox="2072.082573457494 -1024.446973183723 6103.834853085012 12292.058555098934" width="298px">
	<defs/>
	<path d="M 5911.0,10229.0 C 5886.0,10224.0 5855.0,10209.0 5839.0,10194.0 C 5816.0,10172.0 5808.0,10169.0 5796.0,10179.0 C 5784.0,10189.0 5775.0,10183.0 5743.0,10140.0 C 5712.0,10099.0 5701.0,10090.0 5683.0,10095.0 C 5670.0,10098.0 5652.0,10095.0 5642.0,10089.0 C 5627.0,10080.0 5615.0,10080.0 5590.0,10089.0 C 5560.0,10099.0 5554.0,10098.0 5534.0,10079.0 C 5513.0,10060.0 5506.0,10058.0 5469.0,10068.0 C 5434.0,10077.0 5421.0,10076.0 5396.0,10063.0 C 5379.0,10054.0 5334.0,10039.0 5295.0,10030.0 C 5213.0,10010.0 5216.0,10032.0 5265.0,9821.0 C 5297.0,9682.0 5307.0,9660.0 5341.0,9660.0 C 5351.0,9660.0 5361.0,9645.0 5368.0,9621.0 C 5384.0,9568.0 5384.0,9564.0 5353.0,9524.0 C 5330.0,9496.0 5318.0,9490.0 5287.0,9490.0 L 5249.0,9490.0 L 5255.0,9436.0 C 5261.0,9388.0 5260.0,9381.0 5242.0,9371.0 C 5229.0,9364.0 5221.0,9346.0 5216.0,9314.0 C 5211.0,9275.0 5203.0,9261.0 5162.0,9224.0 C 5115.0,9183.0 5113.0,9178.0 5107.0,9115.0 C 5103.0,9079.0 5098.0,9045.0 5095.0,9039.0 C 5091.0,9034.0 5065.0,9018.0 5037.0,9004.0 C 4974.0,8971.0 4890.0,8904.0 4735.0,8761.0 C 4616.0,8651.0 4615.0,8650.0 4565.0,8650.0 C 4538.0,8650.0 4498.0,8655.0 4478.0,8660.0 C 4451.0,8668.0 4414.0,8667.0 4339.0,8655.0 C 4283.0,8647.0 4208.0,8640.0 4173.0,8640.0 C 4125.0,8640.0 4097.0,8634.0 4060.0,8615.0 C 4033.0,8601.0 3994.0,8590.0 3973.0,8590.0 C 3939.0,8590.0 3932.0,8595.0 3906.0,8636.0 C 3871.0,8692.0 3851.0,8700.0 3747.0,8700.0 C 3675.0,8700.0 3660.0,8697.0 3627.0,8675.0 C 3597.0,8654.0 3590.0,8643.0 3590.0,8617.0 C 3590.0,8592.0 3583.0,8581.0 3561.0,8568.0 C 3516.0,8543.0 3495.0,8505.0 3509.0,8474.0 C 3526.0,8436.0 3523.0,8429.0 3494.0,8440.0 C 3479.0,8446.0 3452.0,8447.0 3433.0,8444.0 C 3399.0,8438.0 3398.0,8436.0 3403.0,8399.0 C 3407.0,8366.0 3405.0,8361.0 3385.0,8356.0 C 3372.0,8353.0 3343.0,8357.0 3320.0,8365.0 C 3275.0,8381.0 3180.0,8386.0 3180.0,8372.0 C 3180.0,8368.0 3184.0,8360.0 3189.0,8355.0 C 3194.0,8349.0 3201.0,8314.0 3205.0,8275.0 L 3213.0,8205.0 L 3192.0,8224.0 C 3171.0,8242.0 3170.0,8242.0 3135.0,8211.0 C 3115.0,8194.0 3096.0,8180.0 3092.0,8180.0 C 3088.0,8180.0 3079.0,8176.0 3072.0,8171.0 C 3061.0,8165.0 3066.0,8148.0 3094.0,8092.0 C 3114.0,8053.0 3130.0,8019.0 3130.0,8017.0 C 3130.0,8004.0 3023.0,8033.0 2971.0,8059.0 L 2910.0,8090.0 L 2900.0,8065.0 C 2887.0,8031.0 2887.0,7994.0 2901.0,7968.0 C 2916.0,7940.0 2909.0,7937.0 2867.0,7955.0 L 2831.0,7970.0 L 2811.0,7914.0 C 2799.0,7884.0 2790.0,7843.0 2790.0,7822.0 C 2790.0,7802.0 2784.0,7745.0 2776.0,7697.0 L 2763.0,7608.0 L 2686.0,7531.0 L 2609.0,7453.0 L 2616.0,7317.0 C 2622.0,7196.0 2621.0,7178.0 2606.0,7161.0 C 2592.0,7146.0 2589.0,7119.0 2587.0,7022.0 L 2585.0,6902.0 L 3070.0,6583.0 L 3555.0,6265.0 L 3562.0,5945.0 L 3570.0,5625.0 L 3544.0,5576.0 L 3519.0,5526.0 L 3541.0,5473.0 C 3556.0,5437.0 3567.0,5421.0 3578.0,5422.0 C 3591.0,5424.0 3598.0,5402.0 3616.0,5302.0 C 3629.0,5234.0 3645.0,5171.0 3652.0,5162.0 C 3784.0,5002.0 3818.0,4966.0 3854.0,4948.0 C 3877.0,4937.0 3912.0,4912.0 3933.0,4892.0 C 3966.0,4860.0 3970.0,4851.0 3970.0,4805.0 C 3970.0,4778.0 3977.0,4701.0 3985.0,4635.0 C 3995.0,4554.0 4000.0,4411.0 4000.0,4196.0 L 4000.0,3877.0 L 4031.0,3824.0 L 4061.0,3770.0 L 4036.0,3737.0 C 4019.0,3715.0 4010.0,3690.0 4010.0,3668.0 C 4010.0,3648.0 4003.0,3627.0 3995.0,3620.0 C 3975.0,3604.0 3976.0,3594.0 3999.0,3562.0 C 4016.0,3537.0 4018.0,3492.0 4031.0,2975.0 C 4039.0,2667.0 4045.0,2291.0 4045.0,2140.0 C 4046.0,1989.0 4050.0,1733.0 4054.0,1573.0 L 4063.0,1280.0 L 3980.0,1287.0 C 3910.0,1292.0 3898.0,1291.0 3902.0,1279.0 C 3905.0,1271.0 3916.0,1239.0 3926.0,1207.0 C 3938.0,1169.0 3955.0,1139.0 3975.0,1121.0 C 4005.0,1095.0 4006.0,1093.0 4004.0,1005.0 C 4001.0,914.0 3986.0,854.0 3951.0,796.0 C 3934.0,769.0 3933.0,763.0 3946.0,746.0 C 3954.0,735.0 3960.0,714.0 3960.0,700.0 C 3960.0,669.0 3997.0,631.0 4056.0,602.0 C 4116.0,572.0 4132.0,542.0 4124.0,475.0 L 4117.0,420.0 L 4160.0,420.0 C 4198.0,420.0 4208.0,415.0 4241.0,379.0 C 4281.0,336.0 4285.0,320.0 4296.0,194.0 L 4302.0,113.0 L 4273.0,102.0 C 4256.0,97.0 4197.0,84.0 4141.0,74.0 C 4048.0,58.0 4040.0,55.0 4040.0,34.0 C 4040.0,1.0 4055.0,-3.0 4108.0,14.0 C 4168.0,34.0 4363.0,60.0 4455.0,60.0 C 4499.0,60.0 4635.0,81.0 4820.0,116.0 C 5062.0,162.0 5138.0,173.0 5240.0,176.0 C 5309.0,177.0 5394.0,183.0 5430.0,189.0 C 5466.0,195.0 5518.0,200.0 5546.0,200.0 C 5574.0,200.0 5652.0,211.0 5720.0,225.0 C 5788.0,239.0 5844.0,250.0 5845.0,250.0 C 5846.0,250.0 5850.0,285.0 5853.0,328.0 C 5856.0,370.0 5870.0,447.0 5885.0,499.0 C 5912.0,588.0 5912.0,594.0 5897.0,620.0 C 5872.0,661.0 5885.0,705.0 5932.0,743.0 C 5968.0,772.0 5971.0,777.0 5968.0,820.0 C 5965.0,859.0 5962.0,865.0 5942.0,868.0 C 5925.0,871.0 5913.0,884.0 5899.0,914.0 C 5882.0,953.0 5882.0,960.0 5895.0,1005.0 C 5903.0,1031.0 5910.0,1074.0 5910.0,1099.0 C 5910.0,1136.0 5904.0,1150.0 5879.0,1176.0 L 5849.0,1207.0 L 5866.0,1248.0 C 5878.0,1281.0 5894.0,1296.0 5936.0,1321.0 C 5966.0,1338.0 5990.0,1353.0 5990.0,1355.0 C 5990.0,1358.0 5977.0,1366.0 5962.0,1374.0 C 5945.0,1383.0 5927.0,1404.0 5918.0,1427.0 C 5904.0,1464.0 5904.0,1468.0 5925.0,1498.0 L 5947.0,1530.0 L 5928.0,1633.0 C 5906.0,1753.0 5905.0,1762.0 5908.0,1902.0 L 5910.0,2009.0 L 5944.0,2003.0 L 5978.0,1998.0 L 5985.0,2060.0 C 5992.0,2117.0 5990.0,2123.0 5970.0,2137.0 C 5863.0,2212.0 5850.0,2249.0 5850.0,2476.0 L 5850.0,2646.0 L 5814.0,2681.0 C 5794.0,2699.0 5770.0,2727.0 5759.0,2741.0 L 5740.0,2768.0 L 5775.0,2813.0 C 5794.0,2838.0 5810.0,2869.0 5810.0,2882.0 C 5809.0,2953.0 5844.0,3170.0 5862.0,3207.0 C 5886.0,3257.0 5881.0,3300.0 5845.0,3370.0 C 5832.0,3395.0 5815.0,3440.0 5807.0,3471.0 C 5794.0,3522.0 5794.0,3530.0 5811.0,3561.0 C 5821.0,3580.0 5829.0,3607.0 5830.0,3621.0 C 5830.0,3635.0 5838.0,3654.0 5848.0,3664.0 C 5877.0,3689.0 5893.0,3751.0 5886.0,3801.0 C 5882.0,3825.0 5876.0,3919.0 5872.0,4010.0 C 5867.0,4106.0 5859.0,4188.0 5852.0,4205.0 C 5840.0,4233.0 5841.0,4236.0 5864.0,4255.0 C 5881.0,4269.0 5890.0,4286.0 5890.0,4304.0 C 5890.0,4319.0 5897.0,4357.0 5906.0,4388.0 C 5922.0,4443.0 5922.0,4444.0 5902.0,4458.0 C 5885.0,4469.0 5883.0,4476.0 5890.0,4490.0 C 5903.0,4514.0 5930.0,4643.0 5930.0,4680.0 C 5930.0,4696.0 5933.0,4711.0 5938.0,4713.0 C 5942.0,4716.0 5973.0,4713.0 6008.0,4707.0 C 6066.0,4698.0 6072.0,4699.0 6093.0,4719.0 C 6127.0,4750.0 6222.0,4749.0 6244.0,4718.0 L 6259.0,4697.0 L 6348.0,4735.0 L 6437.0,4773.0 L 6475.0,4889.0 C 6495.0,4953.0 6523.0,5026.0 6536.0,5051.0 L 6559.0,5098.0 L 6538.0,5222.0 C 6514.0,5363.0 6519.0,5399.0 6571.0,5425.0 C 6605.0,5443.0 6686.0,5571.0 6695.0,5622.0 C 6704.0,5672.0 6731.0,5696.0 6760.0,5680.0 C 6780.0,5669.0 6787.0,5673.0 6829.0,5714.0 L 6875.0,5761.0 L 6842.0,5821.0 L 6809.0,5881.0 L 6824.0,5928.0 L 6840.0,5976.0 L 6955.0,6014.0 L 7070.0,6051.0 L 7105.0,6030.0 C 7146.0,6005.0 7156.0,6009.0 7191.0,6069.0 C 7203.0,6089.0 7228.0,6119.0 7246.0,6135.0 C 7277.0,6163.0 7280.0,6172.0 7290.0,6257.0 C 7303.0,6376.0 7312.0,6397.0 7348.0,6405.0 C 7373.0,6410.0 7379.0,6417.0 7384.0,6448.0 C 7397.0,6531.0 7392.0,6551.0 7348.0,6595.0 C 7324.0,6618.0 7290.0,6666.0 7271.0,6701.0 L 7237.0,6766.0 L 7274.0,6844.0 C 7294.0,6887.0 7310.0,6938.0 7310.0,6957.0 C 7310.0,6988.0 7314.0,6993.0 7356.0,7010.0 C 7381.0,7021.0 7408.0,7030.0 7417.0,7030.0 C 7425.0,7030.0 7462.0,7012.0 7500.0,6990.0 C 7538.0,6968.0 7571.0,6950.0 7573.0,6950.0 C 7582.0,6950.0 7603.0,7014.0 7611.0,7065.0 C 7615.0,7093.0 7625.0,7139.0 7634.0,7167.0 C 7642.0,7196.0 7652.0,7274.0 7656.0,7340.0 L 7663.0,7460.0 L 7621.0,7460.0 L 7580.0,7460.0 L 7539.0,7548.0 C 7500.0,7632.0 7499.0,7636.0 7514.0,7663.0 C 7546.0,7720.0 7526.0,7886.0 7483.0,7932.0 C 7457.0,7959.0 7457.0,7960.0 7470.0,8032.0 C 7477.0,8072.0 7483.0,8109.0 7484.0,8114.0 C 7485.0,8119.0 7466.0,8129.0 7443.0,8137.0 C 7406.0,8150.0 7384.0,8174.0 7239.0,8362.0 C 7150.0,8477.0 7066.0,8592.0 7052.0,8617.0 L 7028.0,8661.0 L 7050.0,8745.0 C 7062.0,8791.0 7069.0,8833.0 7066.0,8839.0 C 7062.0,8845.0 7076.0,8854.0 7098.0,8861.0 C 7134.0,8871.0 7138.0,8876.0 7149.0,8923.0 C 7155.0,8951.0 7172.0,9000.0 7187.0,9032.0 L 7213.0,9091.0 L 7187.0,9118.0 C 7172.0,9134.0 7160.0,9159.0 7158.0,9180.0 C 7156.0,9208.0 7150.0,9216.0 7132.0,9218.0 C 7114.0,9221.0 7109.0,9227.0 7112.0,9245.0 C 7114.0,9262.0 7102.0,9278.0 7058.0,9314.0 C 7027.0,9339.0 6992.0,9360.0 6981.0,9360.0 C 6969.0,9360.0 6942.0,9376.0 6920.0,9396.0 C 6882.0,9430.0 6876.0,9432.0 6829.0,9428.0 C 6800.0,9425.0 6763.0,9427.0 6744.0,9433.0 C 6715.0,9442.0 6708.0,9452.0 6671.0,9541.0 C 6649.0,9595.0 6628.0,9650.0 6624.0,9665.0 C 6615.0,9702.0 6516.0,9780.0 6479.0,9780.0 C 6455.0,9780.0 6447.0,9786.0 6439.0,9809.0 C 6432.0,9828.0 6412.0,9846.0 6379.0,9864.0 C 6336.0,9888.0 6325.0,9901.0 6290.0,9970.0 C 6251.0,10048.0 6250.0,10049.0 6204.0,10056.0 C 6166.0,10061.0 6154.0,10069.0 6131.0,10101.0 C 6090.0,10156.0 5995.0,10240.0 5974.0,10239.0 C 5963.0,10238.0 5935.0,10234.0 5911.0,10229.0" fill="pink"/>
</svg>

<?xml version="1.0" standalone="no"?>
<!DOCTYPE svg PUBLIC "-//W3C//DTD SVG 20010904//EN"
 "http://www.w3.org/TR/2001/REC-SVG-20010904/DTD/svg10.dtd">
<svg version="1.0" xmlns="http://www.w3.org/2000/svg"
 width="1024.000000pt" height="1024.000000pt" viewBox="0 0 1024.000000 1024.000000"
 preserveAspectRatio="xMidYMid meet">
<metadata>
Created by potrace 1.10, written by Peter Selinger 2001-2011
</metadata>
<g transform="translate(0.000000,1024.000000) scale(0.100000,-0.100000)"
fill="#000000" stroke="none">
<path d="M5911 10229 c-25 -5 -56 -20 -72 -35 -23 -22 -31 -25 -43 -15 -12 10
-21 4 -53 -39 -31 -41 -42 -50 -60 -45 -13 3 -31 0 -41 -6 -15 -9 -27 -9 -52
0 -30 10 -36 9 -56 -10 -21 -19 -28 -21 -65 -11 -35 9 -48 8 -73 -5 -17 -9
-62 -24 -101 -33 -82 -20 -79 2 -30 -209 32 -139 42 -161 76 -161 10 0 20 -15
27 -39 16 -53 16 -57 -15 -97 -23 -28 -35 -34 -66 -34 l-38 0 6 -54 c6 -48 5
-55 -13 -65 -13 -7 -21 -25 -26 -57 -5 -39 -13 -53 -54 -90 -47 -41 -49 -46
-55 -109 -4 -36 -9 -70 -12 -76 -4 -5 -30 -21 -58 -35 -63 -33 -147 -100 -302
-243 -119 -110 -120 -111 -170 -111 -27 0 -67 5 -87 10 -27 8 -64 7 -139 -5
-56 -8 -131 -15 -166 -15 -48 0 -76 -6 -113 -25 -27 -14 -66 -25 -87 -25 -34
0 -41 5 -67 46 -35 56 -55 64 -159 64 -72 0 -87 -3 -120 -25 -30 -21 -37 -32
-37 -58 0 -25 -7 -36 -29 -49 -45 -25 -66 -63 -52 -94 17 -38 14 -45 -15 -34
-15 6 -42 7 -61 4 -34 -6 -35 -8 -30 -45 4 -33 2 -38 -18 -43 -13 -3 -42 1
-65 9 -45 16 -140 21 -140 7 0 -4 4 -12 9 -17 5 -6 12 -41 16 -80 l8 -70 -21
19 c-21 18 -22 18 -57 -13 -20 -17 -39 -31 -43 -31 -4 0 -13 -4 -20 -9 -11 -6
-6 -23 22 -79 20 -39 36 -73 36 -75 0 -13 -107 16 -159 42 l-61 31 -10 -25
c-13 -34 -13 -71 1 -97 15 -28 8 -31 -34 -13 l-36 15 -20 -56 c-12 -30 -21
-71 -21 -92 0 -20 -6 -77 -14 -125 l-13 -89 -77 -77 -77 -78 7 -136 c6 -121 5
-139 -10 -156 -14 -15 -17 -42 -19 -139 l-2 -120 485 -319 485 -318 7 -320 8
-320 -26 -49 -25 -50 22 -53 c15 -36 26 -52 37 -51 13 2 20 -20 38 -120 13
-68 29 -131 36 -140 132 -160 166 -196 202 -214 23 -11 58 -36 79 -56 33 -32
37 -41 37 -87 0 -27 7 -104 15 -170 10 -81 15 -224 15 -439 l0 -319 31 -53 30
-54 -25 -33 c-17 -22 -26 -47 -26 -69 0 -20 -7 -41 -15 -48 -20 -16 -19 -26 4
-58 17 -25 19 -70 32 -587 8 -308 14 -684 14 -835 1 -151 5 -407 9 -567 l9
-293 -83 7 c-70 5 -82 4 -78 -8 3 -8 14 -40 24 -72 12 -38 29 -68 49 -86 30
-26 31 -28 29 -116 -3 -91 -18 -151 -53 -209 -17 -27 -18 -33 -5 -50 8 -11 14
-32 14 -46 0 -31 37 -69 96 -98 60 -30 76 -60 68 -127 l-7 -55 43 0 c38 0 48
-5 81 -41 40 -43 44 -59 55 -185 l6 -81 -29 -11 c-17 -5 -76 -18 -132 -28 -93
-16 -101 -19 -101 -40 0 -33 15 -37 68 -20 60 20 255 46 347 46 44 0 180 21
365 56 242 46 318 57 420 60 69 1 154 7 190 13 36 6 88 11 116 11 28 0 106 11
174 25 68 14 124 25 125 25 1 0 5 35 8 78 3 42 17 119 32 171 27 89 27 95 12
121 -25 41 -12 85 35 123 36 29 39 34 36 77 -3 39 -6 45 -26 48 -17 3 -29 16
-43 46 -17 39 -17 46 -4 91 8 26 15 69 15 94 0 37 -6 51 -31 77 l-30 31 17 41
c12 33 28 48 70 73 30 17 54 32 54 34 0 3 -13 11 -28 19 -17 9 -35 30 -44 53
-14 37 -14 41 7 71 l22 32 -19 103 c-22 120 -23 129 -20 269 l2 107 34 -6 34
-5 7 62 c7 57 5 63 -15 77 -107 75 -120 112 -120 339 l0 170 -36 35 c-20 18
-44 46 -55 60 l-19 27 35 45 c19 25 35 56 35 69 -1 71 34 288 52 325 24 50 19
93 -17 163 -13 25 -30 70 -38 101 -13 51 -13 59 4 90 10 19 18 46 19 60 0 14
8 33 18 43 29 25 45 87 38 137 -4 24 -10 118 -14 209 -5 96 -13 178 -20 195
-12 28 -11 31 12 50 17 14 26 31 26 49 0 15 7 53 16 84 16 55 16 56 -4 70 -17
11 -19 18 -12 32 13 24 40 153 40 190 0 16 3 31 8 33 4 3 35 0 70 -6 58 -9 64
-8 85 12 34 31 129 30 151 -1 l15 -21 89 38 89 38 38 116 c20 64 48 137 61
162 l23 47 -21 124 c-24 141 -19 177 33 203 34 18 115 146 124 197 9 50 36 74
65 58 20 -11 27 -7 69 34 l46 47 -33 60 -33 60 15 47 16 48 115 38 115 37 35
-21 c41 -25 51 -21 86 39 12 20 37 50 55 66 31 28 34 37 44 122 13 119 22 140
58 148 25 5 31 12 36 43 13 83 8 103 -36 147 -24 23 -58 71 -77 106 l-34 65
37 78 c20 43 36 94 36 113 0 31 4 36 46 53 25 11 52 20 61 20 8 0 45 -18 83
-40 38 -22 71 -40 73 -40 9 0 30 64 38 115 4 28 14 74 23 102 8 29 18 107 22
173 l7 120 -42 0 -41 0 -41 88 c-39 84 -40 88 -25 115 32 57 12 223 -31 269
-26 27 -26 28 -13 100 7 40 13 77 14 82 1 5 -18 15 -41 23 -37 13 -59 37 -204
225 -89 115 -173 230 -187 255 l-24 44 22 84 c12 46 19 88 16 94 -4 6 10 15
32 22 36 10 40 15 51 62 6 28 23 77 38 109 l26 59 -26 27 c-15 16 -27 41 -29
62 -2 28 -8 36 -26 38 -18 3 -23 9 -20 27 2 17 -10 33 -54 69 -31 25 -66 46
-77 46 -12 0 -39 16 -61 36 -38 34 -44 36 -91 32 -29 -3 -66 -1 -85 5 -29 9
-36 19 -73 108 -22 54 -43 109 -47 124 -9 37 -108 115 -145 115 -24 0 -32 6
-40 29 -7 19 -27 37 -60 55 -43 24 -54 37 -89 106 -39 78 -40 79 -86 86 -38 5
-50 13 -73 45 -41 55 -136 139 -157 138 -11 -1 -39 -5 -63 -10z"/>
</g>
</svg>
